X:173
T:Morgan Rattler. RH.173
R:Jig
S:Rev.R.Harrison’s MS,c1815,Cumbria
N:I removed a leading note of B. PJH.
O:England
A:Temple Sowerby,Cumbria
Z:vmp.Simon Wilson. Review PJH, 2008.
M:6/8
L:1/8
Q:3/8=120
K:D
AFE EFE|FEF D2B|AFE EFE|B2A Bcd|!
AFE EFE|FEF D2B/c/|edc cB^A|B2^A Bcd:|!
|:d2e fdB|c2d ecA|d2e fed|”tr”f2e fga|!
d2e fdA|c2d efg|fed cB^A|B2^A Bcd:|!
|:D2d dcd|E2e ede|D2d dcd|B2A Bcd|!
D2d dcd|E2e efg|fed cB^A|B2^A Bcd:|

